gondola.svg

<svg fill="currentColor" viewBox="0 0 24 24"><path d="M18 10h-5V7.59l9.12-1.52-.24-1.48-5.47.91c.05-.15.09-.32.09-.5A1.5 1.5 0 0 0 15 3.5 1.5 1.5 0 0 0 13.5 5c0 .35.13.68.34.93l-.84.14V5h-2v1.41l-.59.09c.05-.15.09-.32.09-.5A1.5 1.5 0 0 0 9 4.5 1.5 1.5 0 0 0 7.5 6c0 .36.13.68.33.93l-5.95 1 .24 1.48L11 7.93V10H6a2 2 0 0 0-2 2v6a2 2 0 0 0 2 2h12a2 2 0 0 0 2-2v-6a2 2 0 0 0-2-2M6 12h2.25v4H6zm3.75 4v-4h4.5v4zM18 16h-2.25v-4H18z"/></svg>

<svg  viewBox="0 0 24 24" fill="currentColor"><path  d="M18,10H13V7.59L22.12,6.07L21.88,4.59L16.41,5.5C16.46,5.35 16.5,5.18 16.5,5A1.5,1.5 0 0,0 15,3.5A1.5,1.5 0 0,0 13.5,5C13.5,5.35 13.63,5.68 13.84,5.93L13,6.07V5H11V6.41L10.41,6.5C10.46,6.35 10.5,6.18 10.5,6A1.5,1.5 0 0,0 9,4.5A1.5,1.5 0 0,0 7.5,6C7.5,6.36 7.63,6.68 7.83,6.93L1.88,7.93L2.12,9.41L11,7.93V10H6C4.89,10 4,10.9 4,12V18A2,2 0 0,0 6,20H18A2,2 0 0,0 20,18V12A2,2 0 0,0 18,10M6,12H8.25V16H6V12M9.75,16V12H14.25V16H9.75M18,16H15.75V12H18V16Z"/></svg>
